X: 21522
T: IRISH AIR - Jig
R: jig
B: K\"ohler's Violin Repository, v.2, 1885 p.152 #2
F: http://www.archive.org/details/klersviolinrepos02rugg
Z: 2012 John Chambers <jc:trillian.mit.edu>
M: 6/8
L: 1/8
K: D
|:\
vF3 {F}EDE | DED DFA | Bcd AGF | GEE {F}EDE |\
F3 {F}EDE | DED DFA | Bcd AdF | [E3A,3] D3 :|
|:\
vFGA AAA | AB=c B^cd | AGF FED | CDE EFG |\
FGA AAA | AB=c B^cd | AGF FED | ECE G3 :|

%%sep 2 1 500

